X: 1815
T: Arctic, The
R: reel
M: 4/4
K: Edorian
|:e~B3 ABd(c|c)dde c~B3|ABd(e e)fdB|edcd c~A3|
FA{c}AE ABd(e|e3)d BABA|FAAB AFED|AB2A FEFF|
ABBB FABd|1 edBA e2 gf:|2 edBA cd(B2|B3)A dcAF||
|:EFAF B3A|cBAF AFED|EAAE AAFA|BAFE F2ED|
EFAF B3A|cF2E FAF(E|E2)cB EAAE|AAFA|
fedB e2dB|1 dBBA F2AF:|2 fedB dBAA|FAdc B2gf||

